svgs/sharp-light/chart-bullet.svg

<svg xmlns="http://www.w3.org/2000/svg" viewBox="0 0 512 512"><!--! Font Awesome Pro 6.6.0 by @fontawesome - https://fontawesome.com License - https://fontawesome.com/license (Commercial License) Copyright 2024 Fonticons, Inc. --><path d="M288 32l0 16 0 16 192 0 32 0 0 32 0 96 0 32-32 0-192 0 0 16 0 16-32 0 0-16 0-16L32 224 0 224l0-32L0 96 0 64l32 0 224 0 0-16 0-16 32 0zM160 96l0 96 96 0 0-96-96 0zm128 0l0 96 192 0 0-96L288 96zM128 96L32 96l0 96 96 0 0-96zM384 256l0 16 0 16 96 0 32 0 0 32 0 96 0 32-32 0-96 0 0 16 0 16-32 0 0-16 0-16L32 448 0 448l0-32 0-96 0-32 32 0 320 0 0-16 0-16 32 0zM224 416l128 0 0-96-128 0 0 96zm160-96l0 96 96 0 0-96-96 0zm-192 0L32 320l0 96 160 0 0-96z"/></svg>

<svg xmlns="http://www.w3.org/2000/svg" viewBox="0 0 512 512"><!--! Font Awesome Pro 6.4.2 by @fontawesome - https://fontawesome.com License - https://fontawesome.com/license (Commercial License) Copyright 2023 Fonticons, Inc. --><path d="M288 32V48 64H480h32V96v96 32H480 288v16 16H256V240 224H32 0V192 96 64H32 256V48 32h32zM160 96v96h96V96H160zm128 0v96H480V96H288zM128 96H32v96h96V96zM384 256v16 16h96 32v32 96 32H480 384v16 16H352V464 448H32 0V416 320 288H32 352V272 256h32zM224 416H352V320H224v96zm160-96v96h96V320H384zm-192 0H32v96H192V320z"/></svg>
